X: 6
T: The Merry Blacksmith
R: reel
M: 4/4
L: 1/8
K: Dmaj
"D" d3 A BAFA | ABdA BAFA | ABde ~f2ed | "A" Beed egfe |
"D" ~d3 A BAFA | ABdA BAFA | "G" ABde fdec |1 "A" dBAF "D" EDD2:|2dBAFD2fg||
|:  "D" a2ag ~f3e | d2dA BAFA | ABde f2ed | "A" Beed e2fg |
"D" abag fgfe | d2dA BAFA | "G" ABde fdec | "A" dBAF "D" D2fg :|
